img/advantage/grey/icon-3.svg

<svg width="65" height="65" viewBox="0 0 65 65" fill="none" xmlns="http://www.w3.org/2000/svg">
<path d="M8.97273 33.4081L11.3744 31.0043C12.2386 30.1395 10.8926 28.7923 10.0273 29.6583L7.62563 32.0622C6.77377 32.9148 8.10107 34.2804 8.97273 33.4081Z" fill="#9898A7"/>
<path d="M64.5844 18.2976C63.6296 16.3919 61.2317 15.5926 59.3241 16.55L49.2607 21.6013V17.1251C49.2607 15.6952 48.098 14.5321 46.6691 14.5321H46.3639C46.4298 14.3119 46.4663 9.33854 46.4663 9.33854C46.4663 8.05759 45.4675 7.00807 44.208 6.92161V0.952148C44.208 0.426309 43.7818 0 43.2558 0H29.449C28.9231 0 28.4969 0.426309 28.4969 0.952148V6.9206C27.228 6.99728 26.2186 8.05086 26.2186 9.33854C26.2186 9.33854 26.2551 14.3119 26.321 14.5321H25.8182C24.3892 14.5321 23.2267 15.6953 23.2267 17.1251V25.2079H21.6568C20.0765 25.2079 18.7907 26.4937 18.7907 28.0742V30.0862H16.0412C14.9573 26.8053 11.8659 24.4302 8.22868 24.4302C7.47344 24.4302 6.72479 24.5328 6.00383 24.735C4.82659 25.0652 5.33948 26.9002 6.51811 26.5685C7.07188 26.4131 7.64749 26.3344 8.22881 26.3344C11.7157 26.3344 14.5525 29.1741 14.5525 32.6644C14.5525 36.1547 11.7157 38.9944 8.22881 38.9944C4.74204 38.9944 1.90527 36.1547 1.90527 32.6644C1.90527 31.3252 2.31762 30.0456 3.09774 28.964C3.81287 27.9723 2.26925 26.8571 1.55323 27.8501C0.537734 29.2581 0.000976562 30.923 0.000976562 32.6645C0.000976562 37.2049 3.69188 40.8988 8.22881 40.8988C11.8659 40.8988 14.9573 38.5238 16.0414 35.2428H18.7908V37.2549C18.7908 38.8353 20.0766 40.1211 21.6569 40.1211H23.2268V47.9397C23.2268 49.3695 24.3893 50.5327 25.8183 50.5327C25.9494 50.5004 26.1361 50.5327 26.2715 50.5327C26.2365 50.6981 26.2188 50.8653 26.2187 51.0343V55.5336C26.2187 56.8213 27.2282 57.8749 28.497 57.9516V64.0479C28.497 64.5737 28.9232 65 29.4491 65H43.2561C43.782 65 44.2082 64.5737 44.2082 64.0479V57.9508C45.4677 57.8643 46.4666 56.8148 46.4666 55.5339V51.0345C46.4666 50.8625 46.4479 50.6949 46.4138 50.5329H46.6693C48.0983 50.5329 49.2609 49.3697 49.2609 47.9399V44.4078C49.2609 43.1853 47.3566 43.1835 47.3566 44.4078V47.9399C47.3566 48.3198 47.0483 48.6286 46.6693 48.6286H25.8182C25.4393 48.6286 25.131 48.3196 25.131 47.9399V39.1692V26.1603V17.1253C25.131 16.7455 25.4393 16.4366 25.8182 16.4366H46.6692C47.0481 16.4366 47.3565 16.7456 47.3565 17.1253V22.5574L40.2592 26.12C40.1774 25.9883 40.0626 25.8747 39.918 25.7932C38.7462 25.133 37.412 24.784 36.06 24.784C31.7179 24.784 28.1853 28.3193 28.1853 32.6648C28.1853 37.0103 31.7179 40.5455 36.06 40.5455C40.1175 40.5455 43.4855 37.5027 43.8943 33.4678C43.9076 33.336 43.8932 33.2079 43.8562 33.0889L47.3564 31.332V38.6951C47.3564 39.9176 49.2607 39.9194 49.2607 38.6951V30.3762L62.8382 23.5609C64.7697 22.5913 65.553 20.2304 64.5844 18.2976ZM28.1229 55.5339V51.0345C28.1229 50.7936 28.2882 50.5922 28.5107 50.5329H32.0852V56.055H28.6441C28.3567 56.055 28.1229 55.8212 28.1229 55.5339ZM33.9895 56.055V50.5329H38.6955V56.055H33.9895ZM42.3038 63.0957H30.4012V58.0869H42.3038V63.0957ZM44.5622 51.0345V55.5339C44.5622 55.8212 44.3283 56.0549 44.041 56.0549H40.5999V50.5328H44.1744C44.3969 50.5922 44.5622 50.7936 44.5622 51.0345ZM16.4267 33.3385C16.4448 33.116 16.4565 32.8916 16.4565 32.6645C16.4565 32.4374 16.4447 32.2131 16.4267 31.9905H18.7905V33.3385H16.4267ZM21.6566 38.217C21.1262 38.217 20.6948 37.7854 20.6948 37.255V34.2908V31.0385V28.0743C20.6948 27.5439 21.1262 27.1124 21.6566 27.1124H23.2265V38.217H21.6566ZM38.6955 8.81753V14.359H33.9895V8.81753H38.6955ZM44.5622 9.33854V13.8379C44.5622 14.1253 44.3283 14.359 44.041 14.359H40.5999V8.81753H43.2561H44.0411C44.3283 8.81753 44.5622 9.05125 44.5622 9.33854ZM30.4012 1.9043H42.3038V6.91323H30.4012V1.9043ZM28.1229 9.33854C28.1229 9.05125 28.3567 8.81753 28.644 8.81753H29.449H32.0852V14.359H28.6441C28.3567 14.359 28.123 14.1253 28.123 13.8379V9.33854H28.1229ZM36.06 38.6411C32.7678 38.6411 30.0896 35.9601 30.0896 32.6647C30.0896 29.3692 32.768 26.6882 36.06 26.6882C36.8219 26.6882 37.5757 26.8347 38.2768 27.1148L34.3197 29.1011C34.2195 29.1514 34.1331 29.2175 34.0598 29.2941C32.912 29.9787 32.1411 31.233 32.1411 32.6645C32.1411 34.8269 33.8991 36.5861 36.06 36.5861C36.8963 36.5861 37.6716 36.3218 38.3087 35.8734L41.8601 34.0907C41.2202 36.735 38.8564 38.6411 36.06 38.6411ZM37.3088 34.2446L36.9798 34.4098C36.9049 34.4473 36.8379 34.4943 36.7779 34.5471C36.5545 34.6328 36.3131 34.6818 36.06 34.6818C34.9491 34.6818 34.0454 33.7769 34.0454 32.6645C34.0454 31.5522 34.9491 30.6472 36.06 30.6472C37.1708 30.6472 38.0746 31.5522 38.0746 32.6645C38.0747 33.3046 37.7745 33.8748 37.3088 34.2446ZM61.9842 21.8587L39.9706 32.9085C39.9756 32.8278 39.979 32.7467 39.979 32.6647C39.979 31.2559 39.2324 30.0186 38.1147 29.3271L60.1787 18.2521C62.5168 17.0781 64.2924 20.7001 61.9842 21.8587Z" fill="#9898A7"/>
<path d="M60.8773 19.2222C59.6519 19.2222 59.6499 21.1265 60.8773 21.1265C62.1025 21.1265 62.1045 19.2222 60.8773 19.2222Z" fill="#9898A7"/>
</svg>

<svg width="65" height="65" fill="none" xmlns="http://www.w3.org/2000/svg"><path d="m8.973 33.408 2.401-2.404c.865-.864-.481-2.212-1.347-1.346l-2.401 2.404c-.852.853.475 2.218 1.347 1.346z" fill="#9898A7"/><path d="M64.584 18.298c-.954-1.906-3.352-2.705-5.26-1.748l-10.063 5.051v-4.476a2.595 2.595 0 0 0-2.592-2.593h-.305c.066-.22.102-5.193.102-5.193 0-1.281-.998-2.33-2.258-2.417V.952A.952.952 0 0 0 43.256 0H29.449a.952.952 0 0 0-.952.952v5.969a2.426 2.426 0 0 0-2.278 2.418s.036 4.973.102 5.193h-.503a2.595 2.595 0 0 0-2.591 2.593v8.083h-1.57a2.87 2.87 0 0 0-2.866 2.866v2.012h-2.75c-1.084-3.28-4.175-5.656-7.812-5.656-.756 0-1.504.103-2.225.305-1.177.33-.665 2.165.514 1.834a6.331 6.331 0 0 1 1.71-.235c3.488 0 6.325 2.84 6.325 6.33s-2.837 6.33-6.324 6.33c-3.487 0-6.324-2.84-6.324-6.33 0-1.339.413-2.618 1.193-3.7.715-.992-.829-2.107-1.545-1.114a8.18 8.18 0 0 0-1.552 4.814c0 4.54 3.69 8.235 8.228 8.235 3.637 0 6.728-2.375 7.812-5.656h2.75v2.012a2.87 2.87 0 0 0 2.866 2.866h1.57v7.819a2.595 2.595 0 0 0 2.591 2.593c.131-.033.318 0 .453 0a2.423 2.423 0 0 0-.052.501v4.5a2.427 2.427 0 0 0 2.278 2.418v6.096c0 .526.426.952.952.952h13.807a.952.952 0 0 0 .952-.952V57.95a2.427 2.427 0 0 0 2.259-2.417v-4.5c0-.172-.02-.34-.053-.501h.255a2.595 2.595 0 0 0 2.592-2.593v-3.532c0-1.223-1.904-1.224-1.904 0v3.532c0 .38-.309.689-.688.689H25.82a.689.689 0 0 1-.688-.69V17.126c0-.38.308-.688.687-.688H46.67c.38 0 .688.309.688.688v5.432l-7.098 3.563a.948.948 0 0 0-.341-.327 7.875 7.875 0 0 0-3.858-1.009c-4.342 0-7.875 3.535-7.875 7.88 0 4.346 3.533 7.881 7.875 7.881a7.85 7.85 0 0 0 7.834-7.077.951.951 0 0 0-.038-.38l3.5-1.756v7.363c0 1.223 1.905 1.224 1.905 0v-8.319l13.577-6.815a3.927 3.927 0 0 0 1.746-5.263zM28.123 55.534v-4.5a.52.52 0 0 1 .388-.501h3.574v5.522h-3.44a.522.522 0 0 1-.522-.521zm5.866.521v-5.522h4.707v5.522H33.99zm8.315 7.04H30.4v-5.008h11.903v5.009zm2.258-12.06v4.499a.522.522 0 0 1-.521.52H40.6v-5.521h3.574a.52.52 0 0 1 .388.502zM16.427 33.338a8.3 8.3 0 0 0 .03-.675c0-.227-.012-.45-.03-.674h2.364v1.349h-2.364zm5.23 4.878a.963.963 0 0 1-.962-.962v-9.181c0-.53.431-.962.962-.962h1.57v11.105h-1.57zm17.039-29.4v5.542H33.99V8.818h4.706zm5.866.522v4.499a.522.522 0 0 1-.521.521H40.6V8.818H44.04c.287 0 .521.233.521.52zm-14.16-7.435h11.902v5.01H30.4v-5.01zm-2.28 7.435c0-.288.235-.521.522-.521H32.085v5.541h-3.44a.522.522 0 0 1-.522-.521v-4.5zM36.06 38.64c-3.292 0-5.97-2.68-5.97-5.976s2.678-5.977 5.97-5.977c.762 0 1.516.147 2.217.427L34.32 29.1a.947.947 0 0 0-.26.193 3.923 3.923 0 0 0-1.919 3.37 3.925 3.925 0 0 0 3.919 3.922c.836 0 1.612-.264 2.249-.713l3.551-1.782a5.95 5.95 0 0 1-5.8 4.55zm1.249-4.396-.33.165a.949.949 0 0 0-.201.137 1.999 1.999 0 0 1-.718.135 2.018 2.018 0 0 1 0-4.035c1.11 0 2.015.905 2.015 2.017 0 .64-.3 1.21-.766 1.58zm24.675-12.386-22.013 11.05a3.923 3.923 0 0 0-1.856-3.581l22.064-11.076c2.338-1.174 4.113 2.448 1.805 3.607z" fill="#9898A7"/><path d="M60.877 19.222c-1.225 0-1.227 1.904 0 1.904 1.225 0 1.227-1.904 0-1.904z" fill="#9898A7"/></svg>
